svgs/solid/naira-sign.svg

<svg xmlns="http://www.w3.org/2000/svg" viewBox="0 0 448 512"><!--! Font Awesome Free 6.7.2 by @fontawesome - https://fontawesome.com License - https://fontawesome.com/license/free (Icons: CC BY 4.0, Fonts: SIL OFL 1.1, Code: MIT License) Copyright 2024 Fonticons, Inc. --><path d="M122.6 46.3c-7.8-11.7-22.4-17-35.9-12.9S64 49.9 64 64l0 192-32 0c-17.7 0-32 14.3-32 32s14.3 32 32 32l32 0 0 128c0 17.7 14.3 32 32 32s32-14.3 32-32l0-128 100.2 0 97.2 145.8c7.8 11.7 22.4 17 35.9 12.9s22.7-16.5 22.7-30.6l0-128 32 0c17.7 0 32-14.3 32-32s-14.3-32-32-32l-32 0 0-192c0-17.7-14.3-32-32-32s-32 14.3-32 32l0 192-57.5 0L122.6 46.3zM305.1 320l14.9 0 0 22.3L305.1 320zM185.5 256L128 256l0-86.3L185.5 256z"/></svg>

<svg xmlns="http://www.w3.org/2000/svg" viewBox="0 0 448 512"><!--! Font Awesome Free 6.5.1 by @fontawesome - https://fontawesome.com License - https://fontawesome.com/license/free (Icons: CC BY 4.0, Fonts: SIL OFL 1.1, Code: MIT License) Copyright 2023 Fonticons, Inc. --><path d="M122.6 46.3c-7.8-11.7-22.4-17-35.9-12.9S64 49.9 64 64V256H32c-17.7 0-32 14.3-32 32s14.3 32 32 32H64V448c0 17.7 14.3 32 32 32s32-14.3 32-32V320H228.2l97.2 145.8c7.8 11.7 22.4 17 35.9 12.9s22.7-16.5 22.7-30.6V320h32c17.7 0 32-14.3 32-32s-14.3-32-32-32H384V64c0-17.7-14.3-32-32-32s-32 14.3-32 32V256H262.5L122.6 46.3zM305.1 320H320v22.3L305.1 320zM185.5 256H128V169.7L185.5 256z"/></svg>
